img/ico-functional.svg

<svg xmlns:sketch="http://www.bohemiancoding.com/sketch/ns" xmlns="http://www.w3.org/2000/svg" viewBox="-84 46 31 50" enable-background="new -84 46 31 50"><style type="text/css">.st0{fill:#E74E40;}</style><title>Icon</title><desc>Created with Sketch Beta.</desc><path class="st0" d="M-55.2 50.2v7c-.4.3-2 1.4-8.1 2.6-4.5.9-9.7 1.6-13.9 2.2-1.9.2-3.5.5-4.7.7v-7.5c1.3-.2 3.4-.5 5.3-.7 10.4-1.4 17.4-2.6 21.4-4.3m0 15.4v7c-.4.3-2 1.4-8.1 2.6-4.5.9-9.7 1.6-13.9 2.2-1.9.2-3.5.5-4.7.7v-7.5c1.3-.2 3.4-.5 5.3-.7 10.4-1.5 17.4-2.6 21.4-4.3m0 15.4v7c-.4.3-2 1.4-8.1 2.6-4.5.9-9.7 1.6-13.9 2.2-1.9.2-3.5.5-4.7.7v-7.5c1.3-.2 3.4-.5 5.3-.7 10.4-1.5 17.4-2.7 21.4-4.3m2-35c0 4.8-30.8 6.7-30.8 7.7v11.5c0-1 30.8-2.9 30.8-7.7v-11.5zm0 15.4c0 4.8-30.8 6.7-30.8 7.7v11.5c0-1 30.8-2.9 30.8-7.7v-11.5zm0 15.4c0 4.8-30.8 6.7-30.8 7.7v11.5c0-1 30.8-2.9 30.8-7.7v-11.5z" id="Shape" sketch:type="MSShapeGroup"/></svg>

<?xml version="1.0" encoding="utf-8"?>
<!-- Generator: Adobe Illustrator 19.0.0, SVG Export Plug-In . SVG Version: 6.00 Build 0)  -->
<svg version="1.1" id="Layer_1" xmlns:sketch="http://www.bohemiancoding.com/sketch/ns"
	 xmlns="http://www.w3.org/2000/svg" xmlns:xlink="http://www.w3.org/1999/xlink" x="0px" y="0px" viewBox="-84 46 31 50"
	 style="enable-background:new -84 46 31 50;" xml:space="preserve">
<style type="text/css">
	.st0{fill:#E74E40;}
</style>
<title>Icon</title>
<desc>Created with Sketch Beta.</desc>
<g id="Page-1" sketch:type="MSPage">
	<g id="About-Web" transform="translate(-705.000000, -409.000000)" sketch:type="MSArtboardGroup">
		<g id="About" transform="translate(240.000000, 160.000000)" sketch:type="MSLayerGroup">
			<g id="Tiles" transform="translate(0.000000, 212.000000)" sketch:type="MSShapeGroup">
				<g id="_x32_" transform="translate(327.000000, 0.000000)">
					<g id="Icon" transform="translate(138.000000, 37.000000)">
						<g id="Shape">
							<path class="st0" d="M-55.2,50.2v7c-0.4,0.3-2,1.4-8.1,2.6c-4.5,0.9-9.7,1.6-13.9,2.2c-1.9,0.2-3.5,0.5-4.7,0.7v-7.5
								c1.3-0.2,3.4-0.5,5.3-0.7C-66.2,53.1-59.2,51.9-55.2,50.2 M-55.2,65.6v7c-0.4,0.3-2,1.4-8.1,2.6c-4.5,0.9-9.7,1.6-13.9,2.2
								c-1.9,0.2-3.5,0.5-4.7,0.7v-7.5c1.3-0.2,3.4-0.5,5.3-0.7C-66.2,68.4-59.2,67.3-55.2,65.6 M-55.2,81v7c-0.4,0.3-2,1.4-8.1,2.6
								c-4.5,0.9-9.7,1.6-13.9,2.2c-1.9,0.2-3.5,0.5-4.7,0.7V86c1.3-0.2,3.4-0.5,5.3-0.7C-66.2,83.8-59.2,82.6-55.2,81 M-53.2,46
								c0,4.8-30.8,6.7-30.8,7.7v11.5c0-1,30.8-2.9,30.8-7.7V46L-53.2,46z M-53.2,61.4c0,4.8-30.8,6.7-30.8,7.7v11.5
								c0-1,30.8-2.9,30.8-7.7V61.4L-53.2,61.4z M-53.2,76.8c0,4.8-30.8,6.7-30.8,7.7V96c0-1,30.8-2.9,30.8-7.7V76.8L-53.2,76.8z"/>
						</g>
					</g>
				</g>
			</g>
		</g>
	</g>
</g>
</svg>
